X: 21866
T: Kiss Her Under The Coverlet
R: slip jig
M: 9/8
K: Adorian
A2g fed c2A|cBc ABc dBG|A2g fed c2A|BdB G2B dBG:|
|:A2c B/c/dB c2A|cBc ABc dBG|A2c B/c/dB c2A|BdB G2B dBG:|
|:A2g faf g2e|faf g2e dBG|A2g faf g3|BdB G2B dBG:|

